!!!!SEGMENT: pl-stab--3b--001-003_rodowski-aleksander--modlitwa-in-b-zycie-w-uciskach.krn
!!!cenid: 18xx:3424
!!!COM: Rodowski, Aleksander
!!!COM-rismID: pe30009627
!!!CDT: <1790->1810
!!!CNT: Polish
!!!OPR: Modlitwa in B
!!!OTL: Życie w uciskach
!!!OMV: 003
!!!PDT: 1806
!!!AGN: Sacred
!!!YEC: Copyright 2022 Narodowy Instytut Fryderyka Chopina (https://polishscores.org)
!!!YEM: License CC-BY-4.0 (https://creativecommons.org/licenses/by/4.0)
!!!SMS-siglum: PL-STAb
!!!SMS-shelfmark: 3b
!!!SMS-shelfwork: 001-003 M
!!!SMS-variant: Canto. PL-STAb 3b: 10-15
!!!SMS-altvar: Canto PL-STAb 3b: 16-18
!!!NIFC-rismSourceID: 301050648
!!!NIFC-rismChildID: 301050648
!!!NIFC-islandoraID: pl-stab:961
!!!URL-pdf-islandora: https://repozytorium.nifc.pl/islandora/object/pl-stab%3A961/datastream/PDF/view
!!!URL-scan: https://polish.musicsources.pl/pl/lokalizacje/galeria/rekopisy/4501 @EN{Scan on Polish Music Sources Website} @PL{Skany w portalu Dziedzictwo Muzyki Polskiej w otwartym dostępie}
!!!IIIF:
!!!ONB-nifc: UWAGA: części Modlitwy: 1. Przed oczy twoie (Adagio), 2. Umysł utrapieniem (Moderatto), 3. Życie w uciskach (Adagio), 4. Jeżeli sprawiedliwie (Moderato), 5. Wyznawamy (Adagio), 6. Kiedy nas karzesz (Adagio), 7. Oto nas masz (Andante), 8. Racz nam tedy dać (Allegro)
!!!AIN: 1 bass 2 organ 1 soprn 1 tenor 2 violn
!!!key: B-
**kern	**kern	**kern	**kern	**kern	**kern	**kern	**text
*group3	*group3	*group2	*group2	*group1	*group1	*group1	*
*part7	*part6	*part5	*part4	*part3	*part2	*part1	*
*staff7	*staff6	*staff5	*staff4	*staff3	*staff2	*staff1	*
*I"Organo	*I"Organo	*I"Violino Secundo	*I"Violino Primo	*I"Baſso	*I"Tenor	*I"Canto.	*
*I'org	*I'org	*I'vl 2	*I'vl 1	*I'B	*I'T	*I'S	*
*Iorgan	*Iorgan	*Ivioln	*Ivioln	*Ibass	*Itenor	*Isoprn	*
*ICklav	*ICklav	*ICstr	*ICstr	*ICvox	*ICvox	*ICvox	*
*clefF4	*clefG2	*clefG2	*clefG2	*clefF4	*clefC4	*clefC1	*
*k[b-e-]	*k[b-e-]	*k[b-e-]	*k[b-e-]	*k[b-e-]	*k[b-e-]	*k[b-e-]	*
*B-:	*B-:	*B-:	*B-:	*B-:	*B-:	*B-:	*
*M3/4	*M3/4	*M3/4	*M3/4	*M3/4	*M3/4	*M3/4	*
*>[A,B,A]	*>[A,B,A]	*>[A,B,A]	*>[A,B,A]	*>[A,B,A]	*>[A,B,A]	*>[A,B,A]	*>[A,B,A]
=1	=1	=1	=1	=1	=1	=1	=1
*>A	*>A	*>A	*>A	*>A	*>A	*>A	*>A
*2\right	*2\right	*2\right	*2\right	*2\right	*2\right	*2\right	*2\right
!	!LO:TX:t=P:problem:po metrum znak segno na podwójnej kresce taktowej	!LO:TX:t=P:problem:po metrum znak segno na podwójnej kresce taktowej	!LO:TX:t=P:problem:po metrum znak segno na podwójnej kresce taktowej	!	!	!	!
!LO:TX:t=P:problem:mixed beam	!LO:TX:a:B:t=Adagio	!LO:TX:a:B:t=Adagio	!LO:TX:a:B:t=Adagio	!LO:TX:a:t=[Tacet]	!LO:TX:a:t=Tacet	!LO:TX:a:B:t=Adagio	!
!	!	!	!	!	!	!LO:N:vis=00	!
8BB-/L	4b-\	8d/L	4b-\	2.ryy	2.ryy	0.r	.
8B-\J	.	8f/	.	.	.	.	.
*tremolo	*	*	*	*	*	*	*
8B-\L	4dd 4b-\	8b-/	4dd\	.	.	.	.
8B-\	.	8f/	.	.	.	.	.
8B-\	4ff 4dd\	8dd/	4ff\	.	.	.	.
8B-\J	.	8b-/J	.	.	.	.	.
*Xtremolo	*	*	*	*	*	*	*
=2	=2	=2	=2	=2	=2	=2	=2
!LO:TX:t=P:problem:mixed beam	!	!	!	!	!	!	!
8AA/L	4.ff 4.dd\	8a/L	4.ff\	2.ryy	2.ryy	.	.
8A\J	.	8f/	.	.	.	.	.
*tremolo	*	*	*	*	*	*	*
8A\L	.	8g/	.	.	.	.	.
8A\	16ee-\LL	8a/	16ee-\LL	.	.	.	.
.	16ff\JJ	.	16ff\JJ	.	.	.	.
8A\	16aa\LL	8cc/	16aa\LL	.	.	.	.
.	16gg\	.	16gg\	.	.	.	.
8A\J	16ff\	8a/J	16ff\	.	.	.	.
.	16ee-\JJ	.	16ee-\JJ	.	.	.	.
*Xtremolo	*	*	*	*	*	*	*
=3	=3	=3	=3	=3	=3	=3	=3
8B-\L	4dd\	8b-/L	4dd\	2.ryy	2.ryy	.	.
8B-\	.	8g/	.	.	.	.	.
8G\	4.ee-\	8c/	4.ee-\	.	.	.	.
8G\	.	8e-/	.	.	.	.	.
8E-\	.	8g/	.	.	.	.	.
8E-\J	16dd\LL	8e-/J	16dd\LL	.	.	.	.
.	16cc\JJ	.	16cc\JJ	.	.	.	.
=4	=4	=4	=4	=4	=4	=4	=4
*tremolo	*	*	*	*	*	*	*
!LO:TX:t=P:problem:ósemki i tremolo połączone belką	!	!	!	!	!	!	!
8F\L	2b- 2d/	8d/L	2b-\	2.ryy	2.ryy	.	.
8F\	.	8f/	.	.	.	.	.
8F\	.	8d/	.	.	.	.	.
8F\J	.	8f/	.	.	.	.	.
*Xtremolo	*	*	*	*	*	*	*
8E-\L	4a 4c/	8c/	4a\	.	.	.	.
8E-\J	.	8f/J	.	.	.	.	.
=5	=5	=5	=5	=5	=5	=5	=5
!	!	!	!	!	!	!LO:N:vis=00	!
8D/L	4b- 4d/	8d/L	4b-\	2.ryy	2.ryy	0.r	.
8D/	.	8f/	.	.	.	.	.
8AA\	4cc 4a 4f/	8A/	4cc\	.	.	.	.
8AA\	.	8f/	.	.	.	.	.
8BB-\	4dd 4b- 4f/	8B-/	4dd\	.	.	.	.
8BB-\J	.	8f/J	.	.	.	.	.
=6	=6	=6	=6	=6	=6	=6	=6
8AA\L	4cc 4a 4f\	8A/L	4cc\	2.ryy	2.ryy	.	.
8AA\	.	8f/	.	.	.	.	.
8BB-\	4dd 4b- 4f\	8B-/	4dd\	.	.	.	.
8BB-\	.	8f/	.	.	.	.	.
8C\	4ee- 4cc 4a 4f\	8c/	4ee-\	.	.	.	.
8C\J	.	8f/J	.	.	.	.	.
=7	=7	=7	=7	=7	=7	=7	=7
8D\L	16ff\LL	16d/LL	16ff\LL	2.ryy	2.ryy	.	.
.	16gg\	16B-/	16gg\	.	.	.	.
8D\	16aa\	16c/	16aa\	.	.	.	.
.	16bb-\JJ	16d/JJ	16bb-\JJ	.	.	.	.
8E-\	4.gg\	8e-/L	4.gg\	.	.	.	.
8E-\	.	8d/	.	.	.	.	.
!	!	!LO:SIC:v:o=8e-/	!	!	!	!	!
8G\	.	8en/	.	.	.	.	.
!	!LO:SIC:v:o=16ee-\LL	!	!LO:SIC:v:o=16ee-\LL	!	!	!	!
8En\J	16een\LL	8g/J	16een\LL	.	.	.	.
.	16cc\JJ	.	16cc\JJ	.	.	.	.
=8	=8	=8	=8	=8	=8	=8	=8
4F\	4b- 4d/	4d/	4b-/	2.ryy	2.ryy	.	.
4FF/	4a 4c/	4c/	4a/	.	.	.	.
4r	4r	4r	4r	.	.	.	.
!LO:LB:g=original	!LO:LB:g=original	!	!	!	!	!	!
=9	=9	=9	=9	=9	=9	=9	=9
!	!	!	!	!	!	!LO:N:vis=00	!
4F\	8cc\L	8a\L	8cc\L	2.ryy	2.ryy	0.r	.
.	8ee- 8cc\	8cc\	8ee-\	.	.	.	.
4r	8ee- 8cc\	8cc\	8ee-\	.	.	.	.
.	8ee- 8cc\	8cc\	8ee-\	.	.	.	.
8A\L	8ee- 8cc\	8cc\	8ee-\	.	.	.	.
8B-\J	8ddJ 8b-\	8b-\J	8dd\J	.	.	.	.
!	!	!LO:LB:g=original	!LO:LB:g=original	!	!	!	!
=10	=10	=10	=10	=10	=10	=10	=10
4c\	8ee-L 8cc\	8cc\L	8ee-\L	2.ryy	2.ryy	.	.
.	8gg 8ee-\	8ee-\	8gg\	.	.	.	.
4r	8gg 8ee-\	8ee-\	8gg\	.	.	.	.
.	8gg 8ee-\	8ee-\	8gg\	.	.	.	.
8A\L	8gg 8ee-\	8ee-\	8gg\	.	.	.	.
8B-\J	8ffJ 8dd\	8dd\J	8ff\J	.	.	.	.
=11	=11	=11	=11	=11	=11	=11	=11
!LO:TX:t=P:problem:mixed beam	!	!LO:TX:t=P:problem:mixed beam	!	!	!	!	!
8E-\L	8ee-\L	8cc\L	8ee-\L	2.ryy	2.ryy	.	.
8E-\	16cc\L	16e-/L	16cc\L	.	.	.	.
.	16dd\JJ	16f/JJ	16dd\JJ	.	.	.	.
8F\	4b- 4d/	8d/L	4b-\	.	.	.	.
8F\	.	8f/	.	.	.	.	.
8FF/	4a 4c/	8c/	4a\	.	.	.	.
8FF/J	.	8f/J	.	.	.	.	.
=12	=12	=12	=12	=12	=12	=12	=12
!	!	!LO:TX:t=P:problem:mixed beam	!	!	!	!	!
4BB-/	8b-\L	8d/L	8b-\L	2.ryy	2.ryy	.	.
.	8dd\J	8b-\J	8dd\J	.	.	.	.
8r	4.ff\	4.dd\	4.ff\	.	.	.	.
8BB-/L	.	.	.	.	.	.	.
8D/	.	.	.	.	.	.	.
8BB-/J	8dd\	8b-\	8dd\	.	.	.	.
=13	=13	=13	=13	=13	=13	=13	=13
!	!	!	!	!	!	!LO:N:vis=00	!
4F\	8cc\L	8a\L	8cc\L	2.ryy	2.ryy	0.r	.
.	8ee- 8cc\	8cc\	8ee-\	.	.	.	.
4r	8ee- 8cc\	8cc\	8ee-\	.	.	.	.
.	8ee- 8cc\	8cc\	8ee-\	.	.	.	.
8A\L	8ee- 8cc\	8cc\	8ee-\	.	.	.	.
8B-\J	8ddJ 8b-\	8b-\J	8dd\J	.	.	.	.
=14	=14	=14	=14	=14	=14	=14	=14
4c\	8ee-L 8cc\	8cc\L	8ee-\L	2.ryy	2.ryy	.	.
.	8gg 8ee-\	8ee-\	8gg\	.	.	.	.
4r	8gg 8ee-\	8ee-\	8gg\	.	.	.	.
.	8gg 8ee-\	8ee-\	8gg\	.	.	.	.
8A\L	8gg 8ee-\	8ee-\	8gg\	.	.	.	.
8B-\J	8ffJ 8dd\	8dd\J	8ff\J	.	.	.	.
=15	=15	=15	=15	=15	=15	=15	=15
!LO:TX:t=P:problem:mixed beam	!	!LO:TX:t=P:problem:mixed beam	!	!	!	!	!
8E-\L	8ee-\L	8cc\L	8ee-\L	2.ryy	2.ryy	.	.
8E-\	16cc\L	16e-/L	16cc\L	.	.	.	.
.	16dd\JJ	16f/JJ	16dd\JJ	.	.	.	.
8F\	4b-\	8d/L	4b-/	.	.	.	.
8F\	.	8f/	.	.	.	.	.
8FF/	4a\	8c/	4a/	.	.	.	.
8FF/J	.	8f/J	.	.	.	.	.
!LO:LB:g=original	!LO:LB:g=original	!	!	!	!	!	!
=16	=16	=16	=16	=16	=16	=16	=16
*	*	*tremolo	*	*	*	*	*
!LO:TX:t=P:problem:mixed beam	!	!	!	!	!	!	!
8DD/L	4.ff\	8b-L 8d/	4.ff\	2.ryy	2.ryy	.	.
8D\	.	8b- 8d/	.	.	.	.	.
8D\	.	8b- 8d/	.	.	.	.	.
8D\	16gg\LL	8b- 8d/	16gg\LL	.	.	.	.
.	16aa\JJ	.	16aa\JJ	.	.	.	.
8D\	16bb-\LL	8b- 8d/	16bb-\LL	.	.	.	.
.	16ff\	.	16ff\	.	.	.	.
8D\J	16ee-\	8b-J 8d/	16ee-\	.	.	.	.
.	16dd\JJ	.	16dd\JJ	.	.	.	.
*	*	*Xtremolo	*	*	*	*	*
=17	=17	=17	=17	=17	=17	=17	=17
!LO:TX:t=P:problem:mixed beam	!	!	!	!	!	!LO:N:vis=00	!
8E-\L	16dd\LL	8e-/L	16dd\LL	2.ryy	2.ryy	0.r	.
.	16cc\	.	16cc\	.	.	.	.
8E-\	16ee-\	16g/L	16ee-\	.	.	.	.
.	16gg\JJ	16e-/JJ	16gg\JJ	.	.	.	.
8F\	4b- 4d/	8d/L	4b-\	.	.	.	.
8F\	.	8f/	.	.	.	.	.
8FF/	4a 4c/	8c/	4a 4e-/	.	.	.	.
8FF/J	.	8f/J	.	.	.	.	.
=18	=18	=18	=18	=18	=18	=18	=18
*	*	*tremolo	*	*	*	*	*
!LO:TX:t=P:problem:mixed beam	!	!	!LO:TX:t=P:problem:t. 18-19 – brak powtórki t. 16-17 (ołówkiem oznaczona powtórka t. 16-17,błędnie t. 20)	!	!	!	!
8DD/L	4.ff\	8b-L 8d/	4.ff\yy	2.ryy	2.ryy	.	.
8D\	.	8b- 8d/	.	.	.	.	.
8D\	.	8b- 8d/	.	.	.	.	.
8D\	16gg\LL	8b- 8d/	16gg\LLyy	.	.	.	.
.	16aa\JJ	.	16aa\JJyy	.	.	.	.
8D\	16bb-\LL	8b- 8d/	16bb-\LLyy	.	.	.	.
.	16ff\	.	16ff\yy	.	.	.	.
8D\J	16ee-\	8b-J 8d/	16ee-\yy	.	.	.	.
.	16dd\JJ	.	16dd\JJyy	.	.	.	.
*	*	*Xtremolo	*	*	*	*	*
=19	=19	=19	=19	=19	=19	=19	=19
!LO:TX:t=P:problem:mixed beam	!	!	!	!	!	!	!
8E-\L	16dd\LL	8e-/L	16dd\LLyy	2.ryy	2.ryy	.	.
.	16cc\	.	16cc\yy	.	.	.	.
8E-\	16ee-\	16g/L	16ee-\yy	.	.	.	.
.	16gg\JJ	16e-/JJ	16gg\JJyy	.	.	.	.
8F\	4b- 4d/	8d/L	4b-\yy	.	.	.	.
8F\	.	8f/	.	.	.	.	.
8FF/	4a 4c/	8c/	4ayy 4e-/yy	.	.	.	.
8FF/J	.	8f/J	.	.	.	.	.
!	!	!LO:LB:g=original	!	!	!	!	!
=20	=20	=20	=20	=20	=20	=20	=20
4BB-/	4b-;\	4d 4B-/	4b-\	2.ryy	2.ryy	.	.
4BB-/	4B-/	4d 4B-/	4B-/	.	.	.	.
4r	4r	4r	4r	.	.	.	.
!	!LO:TX:b:rj:i:t=finis	!LO:TX:b:rj:i:t=finis	!LO:TX:b:rj:i:t=finis	!	!	!	!
!	!	!	!LO:LB:g=original	!	!	!	!
=21||;	=21||;	=21||;	=21||;	=21||	=21||	=21	=21
*>B	*>B	*>B	*>B	*>B	*>B	*>B	*>B
!LO:TX:t=P:problem:mixed beam	!	!LO:TX:a:t=48.	!LO:TX:a:t=48.	!	!	!	!
!	!	!LO:N:vis=00	!LO:N:vis=00	!	!	!	!
8BB-/L	4b-\	0.r	0.r	2.ryy	2.ryy	4b-\	Ży-
8B-\J	.	.	.	.	.	.	.
*tremolo	*	*	*	*	*	*	*
!LO:TX:t=P:problem:ósemki i tremolo połączone belką	!	!	!	!	!	!	!
8B-\L	4dd 4b-\	.	.	.	.	4dd\	-cie
8B-\	.	.	.	.	.	.	.
8B-\	4ff 4dd\	.	.	.	.	4ff\	w u-
8B-\J	.	.	.	.	.	.	.
*Xtremolo	*	*	*	*	*	*	*
=22	=22	=22	=22	=22	=22	=22	=22
!LO:TX:t=P:problem:mixed beam	!	!	!	!	!	!	!
!LO:TX:t=P:problem:ósemki i tremolo połączone belką	!	!	!	!	!	!	!
8AA/L	2ff 2cc\	.	.	2.ryy	2.ryy	2ff\	-cis-
8A\J	.	.	.	.	.	.	.
*tremolo	*	*	*	*	*	*	*
!LO:TX:t=P:problem:ósemki i tremolo połączone belką	!	!	!	!	!	!	!
8A\L	.	.	.	.	.	.	.
8A\	.	.	.	.	.	.	.
8A\	4ee- 4cc\	.	.	.	.	4ee-\	-ku
8A\J	.	.	.	.	.	.	.
*Xtremolo	*	*	*	*	*	*	*
=23	=23	=23	=23	=23	=23	=23	=23
8B-\L	4dd\	.	.	2.ryy	2.ryy	4dd\	pra-
8B-\	.	.	.	.	.	.	.
8G\	4.ee-\	.	.	.	.	4.ee-\	-wie
8G\	.	.	.	.	.	.	.
8E-\	.	.	.	.	.	.	.
8E-\J	8dd\	.	.	.	.	16dd\LL	u-
.	.	.	.	.	.	16cc\JJ	.
!LO:PB:g=original	!LO:PB:g=original	!	!	!	!	!	!
=24	=24	=24	=24	=24	=24	=24	=24
4F\	2b- 2d/	.	.	2.ryy	2.ryy	2b-\	-sta-
4FF/	.	.	.	.	.	.	.
4F\	4a 4c/	.	.	.	.	4a\	-ie
=25	=25	=25	=25	=25	=25	=25	=25
!LO:TUP:a:problem:klamra łukowa	!	!LO:N:vis=00	!LO:N:vis=00	!	!	!LO:N:vis=0	!
12B-\L	2.r	0.r	0.r	2.ryy	2.ryy	1.r	.
12B-\	.	.	.	.	.	.	.
12B-\J	.	.	.	.	.	.	.
!LO:TUP:a:problem:klamra łukowa	!	!	!	!	!	!	!
12G\L	.	.	.	.	.	.	.
12G\	.	.	.	.	.	.	.
12G\J	.	.	.	.	.	.	.
!LO:TUP:a:problem:klamra łukowa 	!	!	!	!	!	!	!
12En\L	.	.	.	.	.	.	.
12E\	.	.	.	.	.	.	.
12E\J	.	.	.	.	.	.	.
=26	=26	=26	=26	=26	=26	=26	=26
*Xtuplet	*	*	*	*	*	*	*
12C\L	2.r	.	.	2.ryy	2.ryy	.	.
12D\	.	.	.	.	.	.	.
12En\J	.	.	.	.	.	.	.
8F\L	.	.	.	.	.	.	.
8F\J	.	.	.	.	.	.	.
4r	.	.	.	.	.	.	.
!	!	!	!	!	!	!LO:LB:g=original	!
=27	=27	=27	=27	=27	=27	=27	=27
8B-\L	4b-\	.	.	2.ryy	2.ryy	(4b-\	Ży-
8F\	.	.	.	.	.	.	.
8A\	4cc\	.	.	.	.	4cc\)	.
8F\	.	.	.	.	.	.	.
8B-\	4dd\	.	.	.	.	4dd\	-cie
8F\J	.	.	.	.	.	.	.
=28	=28	=28	=28	=28	=28	=28	=28
8A\L	4cc\	.	.	2.ryy	2.ryy	4cc\	w u-
8F\	.	.	.	.	.	.	.
8B-\	4dd\	.	.	.	.	4dd\	-cis-
8F\	.	.	.	.	.	.	.
8c\	4ee-\	.	.	.	.	4ee-\	-kach
8F\J	.	.	.	.	.	.	.
=29	=29	=29	=29	=29	=29	=29	=29
!	!	!LO:N:vis=00	!LO:N:vis=00	!	!	!	!
4D\	8ff\L	0.r	0.r	2.ryy	2.ryy	8ff\L	pra-
.	8ff#X\J	.	.	.	.	8ff#X\J	.
4E-\	4.gg\	.	.	.	.	4.gg\	-wie
4En\	.	.	.	.	.	.	.
.	16ee-\LL	.	.	.	.	16ee-\LL	u-
.	16cc\JJ	.	.	.	.	16cc\JJ	.
=30	=30	=30	=30	=30	=30	=30	=30
4F\	4b-\	.	.	2.ryy	2.ryy	4b-\	-sta-
4FF/	4a\	.	.	.	.	4a\	-ie
4r	4r	.	.	.	.	4r	.
=31	=31	=31	=31	=31	=31	=31	=31
!	!	!	!	!	!	!LO:N:vis=00	!
8F\	2.r	.	.	2.ryy	2.ryy	0.r	.
12F\L	.	.	.	.	.	.	.
12G\	.	.	.	.	.	.	.
12A\J	.	.	.	.	.	.	.
8B-\L	.	.	.	.	.	.	.
8F\J	.	.	.	.	.	.	.
8r	.	.	.	.	.	.	.
!LO:LB:g=original	!LO:LB:g=original	!	!	!	!	!	!
=32	=32	=32	=32	=32	=32	=32	=32
8F\	2.r	.	.	2.ryy	2.ryy	.	.
12F\L	.	.	.	.	.	.	.
12G\	.	.	.	.	.	.	.
12A\J	.	.	.	.	.	.	.
8B-\L	.	.	.	.	.	.	.
8F\J	.	.	.	.	.	.	.
8r	.	.	.	.	.	.	.
=33	=33	=33	=33	=33	=33	=33	=33
!	!	!LO:N:vis=00	!LO:N:vis=00	!	!	!	!
12B-\L	2.r	0.r	0.r	2.ryy	2.ryy	.	.
12B-\	.	.	.	.	.	.	.
12B-\J	.	.	.	.	.	.	.
12G-X\L	.	.	.	.	.	.	.
12G-\	.	.	.	.	.	.	.
12G-\J	.	.	.	.	.	.	.
12En\L	.	.	.	.	.	.	.
12E\	.	.	.	.	.	.	.
12E\J	.	.	.	.	.	.	.
=34	=34	=34	=34	=34	=34	=34	=34
12C\L	2.ryy	.	.	2.ryy	2.ryy	.	.
12D\	.	.	.	.	.	.	.
!LO:SIC:v:o=12E-\J	!	!	!	!	!	!	!
12En\J	.	.	.	.	.	.	.
8F\L	.	.	.	.	.	.	.
8F\J	.	.	.	.	.	.	.
4r	.	.	.	.	.	.	.
*clefG2	*	*	*	*	*	*	*
=35-	=35	=35	=35	=35	=35	=35	=35
8r	2ff\	.	.	2.ryy	2.ryy	2ff\	Ży-
8a 8f/	.	.	.	.	.	.	.
*tremolo	*	*	*	*	*	*	*
!LO:TX:t=P:problem:ósemki i tremolo połączone belką	!	!	!	!	!	!	!
8a 8f/L	.	.	.	.	.	.	.
8a 8f/	.	.	.	.	.	.	.
8a 8f/	16ff\LL	.	.	.	.	16ff\LL	-cie
.	16aa\JJ	.	.	.	.	16aa\JJ	.
8a 8f/J	16gg\LL	.	.	.	.	16gg\LL	w u-
.	16ff\JJ	.	.	.	.	16ff\JJ	.
*Xtremolo	*	*	*	*	*	*	*
!	!	!	!	!	!	!LO:LB:g=original	!
=36	=36	=36	=36	=36	=36	=36	=36
8r	8ff\L	.	.	2.ryy	2.ryy	8ff\L	-ci-
!LO:TX:t=P:problem:wykreślony bemol przy 8g	!	!	!	!	!	!	!
8b- 8g/	8een\J	.	.	.	.	8een\J	.
*tremolo	*	*	*	*	*	*	*
!LO:TX:t=P:problem:ósemki i tremolo połączone belką	!	!	!	!	!	!	!
8b- 8g/L	4ee\	.	.	.	.	4ee\	-skach
8b- 8g/	.	.	.	.	.	.	.
8b- 8g/	4r	.	.	.	.	4r	.
8b- 8g/J	.	.	.	.	.	.	.
*Xtremolo	*	*	*	*	*	*	*
=37	=37	=37	=37	=37	=37	=37	=37
!	!	!LO:N:vis=00	!LO:N:vis=00	!	!	!	!
8r	2ff\	0.r	0.r	2.ryy	2.ryy	2ff\	pra-
8a 8f/	.	.	.	.	.	.	.
*tremolo	*	*	*	*	*	*	*
!LO:TX:t=P:problem:ósemki i tremolo połączone belką	!	!	!	!	!	!	!
8a 8f/L	.	.	.	.	.	.	.
8a 8f/	.	.	.	.	.	.	.
8a 8f/	16ff\LL	.	.	.	.	16ff\LL	-wie
.	16aa\	.	.	.	.	16aa\JJ	.
8a 8f/J	16gg\	.	.	.	.	16gg\LL	u-
.	16ff\JJ	.	.	.	.	16ff\JJ	.
*Xtremolo	*	*	*	*	*	*	*
=38	=38	=38	=38	=38	=38	=38	=38
8r	8.ff\L	.	.	2.ryy	2.ryy	8.ff\L	-sta-
!LO:TX:t=P:problem:wykreślony bemol przy 8g	!	!	!	!	!	!	!
8b- 8g/	.	.	.	.	.	.	.
.	16een\Jk	.	.	.	.	16een\Jk	.
*tremolo	*	*	*	*	*	*	*
!LO:TX:t=P:problem:ósemki i tremolo połączone belką	!	!	!	!	!	!	!
8b- 8g/L	4ee\	.	.	.	.	4ee\	-ie
8b- 8g/	.	.	.	.	.	.	.
8b- 8g/	8r	.	.	.	.	8r	.
8b- 8g/J	8ff\	.	.	.	.	8ff\	u-
*Xtremolo	*	*	*	*	*	*	*
!LO:LB:g=original	!LO:LB:g=original	!	!	!	!	!	!
=39	=39	=39	=39	=39	=39	=39	=39
8r	8.ff\L	.	.	2.ryy	2.ryy	8.ff\L	-sta-
8a 8f/	.	.	.	.	.	.	.
.	16ee-X\Jk	.	.	.	.	16ee-X\Jk	.
*tremolo	*	*	*	*	*	*	*
!LO:TX:t=P:problem:ósemki i tremolo połączone belką	!	!	!	!	!	!	!
8a 8f/L	4ee-\	.	.	.	.	4ee-\	-ie
8a 8f/	.	.	.	.	.	.	.
8a 8f/	8r	.	.	.	.	8r	.
8a 8f/J	8ee-\	.	.	.	.	8ee-\	u-
*Xtremolo	*	*	*	*	*	*	*
=40	=40	=40	=40	=40	=40	=40	=40
8r	8.ee-\L	.	.	2.ryy	2.ryy	8.ee-\L	-sta-
8b- 8f/	.	.	.	.	.	.	.
.	16dd-X\Jk	.	.	.	.	16dd-X\Jk	.
*tremolo	*	*	*	*	*	*	*
!LO:TX:t=P:problem:ósemki i tremolo połączone belką	!	!	!	!	!	!LO:LB:g=original	!
8b- 8f/L	4dd-\	.	.	.	.	4dd-\	-ie
8b- 8f/	.	.	.	.	.	.	.
8b- 8f/	4r	.	.	.	.	4r	.
8b- 8f/J	.	.	.	.	.	.	.
*Xtremolo	*	*	*	*	*	*	*
=41	=41	=41	=41	=41	=41	=41	=41
!	!	!LO:N:vis=00	!LO:N:vis=00	!	!	!	!
8r	8dd-X\L	0.r	0.r	2.ryy	2.ryy	8dd-X\L	pra-
8b- 8e-/	8bb-\J	.	.	.	.	8bb-\J	.
*tremolo	*	*	*	*	*	*	*
!LO:TX:t=P:problem:ósemki i tremolo połączone belką	!	!	!	!	!	!	!
8b- 8e-/L	4.bb-\	.	.	.	.	4.bb-\	-wie
8b- 8e-/	.	.	.	.	.	.	.
8b- 8e-/	.	.	.	.	.	.	.
8b- 8e-/J	8dd-X\	.	.	.	.	8dd-X\	u-
*Xtremolo	*	*	*	*	*	*	*
=42	=42	=42	=42	=42	=42	=42	=42
!	!LO:SIC:v:o=8.dd\L	!	!	!	!	!LO:SIC:v:o=8.dd\L	!
4b- 4f/	8.dd-\L	.	.	2.ryy	2.ryy	8.dd-\L	-sta-
.	16cc\Jk	.	.	.	.	16cc\Jk	.
4b- 4f/	4cc\	.	.	.	.	4cc\	-ie
4r	4r	.	.	.	.	4r	.
*clefF4	*	*	*	*	*	*	*
=43	=43	=43	=43	=43	=43	=43	=43
!	!	!	!	!	!	!LO:N:vis=00	!
8F\	2.r	.	.	2.ryy	2.ryy	0.r	.
12F\L	.	.	.	.	.	.	.
12G\	.	.	.	.	.	.	.
12A\J	.	.	.	.	.	.	.
8B-\L	.	.	.	.	.	.	.
8F\J	.	.	.	.	.	.	.
8r	.	.	.	.	.	.	.
=44	=44	=44	=44	=44	=44	=44	=44
8F\	2.r	.	.	2.ryy	2.ryy	.	.
12F\L	.	.	.	.	.	.	.
12G\	.	.	.	.	.	.	.
12A\J	.	.	.	.	.	.	.
8B-\L	.	.	.	.	.	.	.
8F\J	.	.	.	.	.	.	.
8r	.	.	.	.	.	.	.
=45	=45	=45	=45	=45	=45	=45	=45
*tuplet	*	*	*	*	*	*	*
!LO:TUP:a:problem:klamra łukowa 	!	!LO:N:vis=00	!LO:N:vis=00	!	!	!	!
12B-\L	4r	0.r	0.r	2.ryy	2.ryy	.	.
12B-\	.	.	.	.	.	.	.
12B-\J	.	.	.	.	.	.	.
!LO:TUP:a:problem:klamra łukowa	!	!	!	!	!	!	!
12G\L	4r	.	.	.	.	.	.
12G\	.	.	.	.	.	.	.
12G\J	.	.	.	.	.	.	.
!LO:LB:g=original	!LO:LB:g=original	!	!	!	!	!	!
!LO:TUP:a:problem:klamra łukowa 	!	!	!	!	!	!	!
12En\L	4r	.	.	.	.	.	.
12E\	.	.	.	.	.	.	.
12E\J	.	.	.	.	.	.	.
=46	=46	=46	=46	=46	=46	=46	=46
!LO:TUP:a:problem:klamra łukowa	!	!	!	!	!	!	!
12C\L	2.r	.	.	2.ryy	2.ryy	.	.
12D\	.	.	.	.	.	.	.
!LO:SIC:v:o=12E-\J	!	!	!	!	!	!	!
12En\J	.	.	.	.	.	.	.
8F\L	.	.	.	.	.	.	.
8F\J	.	.	.	.	.	.	.
4r	.	.	.	.	.	.	.
=47	=47	=47	=47	=47	=47	=47	=47
8r	4cc\	.	.	2.ryy	2.ryy	(4cc\	Ży-
8f 8A\	.	.	.	.	.	.	.
*tremolo	*	*	*	*	*	*	*
!LO:TX:t=P:problem:ósemki i tremolo połączone belką	!	!	!	!	!	!	!
8f 8A\L	4ee-\	.	.	.	.	4ee-\)	.
8f 8A\	.	.	.	.	.	.	.
8f 8A\	4gg\	.	.	.	.	4gg\	-cie
8f 8A\J	.	.	.	.	.	.	.
*Xtremolo	*	*	*	*	*	*	*
=48	=48	=48	=48	=48	=48	=48	=48
.	8qqgg/	.	.	.	.	8qqgg/	.
8r	4ff\	.	.	2.ryy	2.ryy	4ff\	w u-
8f 8B-\	.	.	.	.	.	.	.
!	!LO:TX:a:t=d	!	!	!	!	!	!
!	!LO:SIC:v:o=8qqff/	!	!	!	!	!	!
.	8qqee-	.	.	.	.	8qqee-/	.
*tremolo	*	*	*	*	*	*	*
!LO:TX:t=P:problem:ósemki i tremolo połączone belką	!	!	!	!	!	!	!
8f 8B-\L	4dd\	.	.	.	.	4dd\	-cis-
8f 8B-\	.	.	.	.	.	.	.
!	!LO:TX:a:t=b	!	!	!	!	!	!
!	!LO:SIC:v:o=8qqb-/	!	!	!	!	!	!
.	8qqcc/	.	.	.	.	8qqcc/	.
8f 8B-\	4b-\	.	.	.	.	4b-\	-kach
8f 8B-\J	.	.	.	.	.	.	.
*Xtremolo	*	*	*	*	*	*	*
=49	=49	=49	=49	=49	=49	=49	=49
.	8qqff/	.	.	.	.	8qqff/	.
!	!	!LO:N:vis=00	!LO:N:vis=00	!	!	!	!
8r	4ee-\	0.r	0.r	2.ryy	2.ryy	4ee-\	pra-
8c 8E-\L	.	.	.	.	.	.	.
.	8qqdd/	.	.	.	.	8qqdd/	.
8c 8E-\	4cc\	.	.	.	.	4cc\	-wie
8c 8E-\	.	.	.	.	.	.	.
!	!	!	!	!	!	!LO:LB:g=original	!
.	8qqb-/	.	.	.	.	8qqb-/	.
8c 8F\	4a/	.	.	.	.	4a\	u-
8c 8F\J	.	.	.	.	.	.	.
=50	=50	=50	=50	=50	=50	=50	=50
8r	8.cc\L	.	.	2.ryy	2.ryy	8.cc\L	-sta-
8B-L 8G\	.	.	.	.	.	.	.
.	16b-\Jk	.	.	.	.	16b-\Jk	.
8B- 8G\	4b-\	.	.	.	.	4b-\	-ie
8B- 8G\	.	.	.	.	.	.	.
8A 8F\	4r	.	.	.	.	4r	.
8GJ 8E-\	.	.	.	.	.	.	.
=51	=51	=51	=51	=51	=51	=51	=51
8r	4cc\	.	.	2.ryy	2.ryy	(4cc\	Zy-
8f 8A\	.	.	.	.	.	.	.
*tremolo	*	*	*	*	*	*	*
!LO:TX:t=P:problem:ósemki i tremolo połączone belką	!	!	!	!	!	!	!
8f 8A\L	4ee-\	.	.	.	.	4ee-\)	.
8f 8A\	.	.	.	.	.	.	.
8f 8A\	4gg\	.	.	.	.	4gg\	-cie
8f 8A\J	.	.	.	.	.	.	.
*Xtremolo	*	*	*	*	*	*	*
=52	=52	=52	=52	=52	=52	=52	=52
.	8qqgg/	.	.	.	.	8qqgg/	.
8r	4ff\	.	.	2.ryy	2.ryy	4ff\	w u-
8f 8B-\	.	.	.	.	.	.	.
.	8qqee-/	.	.	.	.	8qqee-/	.
*tremolo	*	*	*	*	*	*	*
!LO:TX:t=P:problem:ósemki i tremolo połączone belką	!	!	!	!	!	!	!
8f 8B-\L	4dd\	.	.	.	.	4dd\	-cis-
8f 8B-\	.	.	.	.	.	.	.
.	8qqcc/	.	.	.	.	8qqcc/	.
8f 8B-\	4b-\	.	.	.	.	4b-\	-kach
8f 8B-\J	.	.	.	.	.	.	.
*Xtremolo	*	*	*	*	*	*	*
!LO:LB:g=original	!LO:LB:g=original	!	!	!	!	!	!
=53	=53	=53	=53	=53	=53	=53	=53
.	8qqff/	.	.	.	.	8qqff/	.
!	!	!LO:N:vis=00	!LO:N:vis=00	!	!	!	!
8r	4ee-\	0.r	0.r	2.ryy	2.ryy	4ee-\	pra-
8cL 8E-\	.	.	.	.	.	.	.
.	8qqdd/	.	.	.	.	8qqdd/	.
8c 8E-\	4cc\	.	.	.	.	4cc\	-wie
8c 8E-\	.	.	.	.	.	.	.
.	8qqb-/	.	.	.	.	8qqb-/	.
8c 8F\	4a\	.	.	.	.	4a\	u-
8cJ 8F\	.	.	.	.	.	.	.
=54	=54	=54	=54	=54	=54	=54	=54
8e-L 8A\	8.cc\L	.	.	2.ryy	2.ryy	8.cc\L	-sta-
8dJ 8B-\	.	.	.	.	.	.	.
.	16b-\Jk	.	.	.	.	16b-\Jk	.
8d 8B-\	8b-\L	.	.	.	.	8b-\	-ie
8r	8ffJ 8dd\	.	.	.	.	8ff\	u-
!	!	!	!	!	!	!LO:LB:g=original	!
4r	8ggL 8ee-\	.	.	.	.	8gg\L	-sta-
.	8ee-J 8cc\	.	.	.	.	8ee-\J	.
=55	=55	=55	=55	=55	=55	=55	=55
4B-\	4dd 4b-\	.	.	2.ryy	2.ryy	4dd\	-ie
4BB-/	8r	.	.	.	.	8r	.
.	8dd 8f\	.	.	.	.	8dd\	u-
4r	8ee-L 8g\	.	.	.	.	8ee-\L	-sta-
.	8ccJ 8e-\	.	.	.	.	8cc\J	.
=56	=56	=56	=56	=56	=56	=56	=56
4BB-/	4b- 4d/	.	.	2.ryy	2.ryy	4b-\	-ie
4B-\	8r	.	.	.	.	8r	.
.	8dd 8b-\	.	.	.	.	8dd\	zy-
4r	8.ffL 8.dd\	.	.	.	.	8.ff\	-cie
.	16ddJk 16b-\	.	.	.	.	16dd\	w u-
=57	=57	=57	=57	=57	=57	=57	=57
!	!	!LO:N:vis=00	!LO:N:vis=00	!	!	!	!
4BB-/	8ffL 8dd\	0.r	0.r	2.ryy	2.ryy	8ff\	-cis-
.	8ddJ 8b-\	.	.	.	.	8dd\	-kach
4B-\	8r	.	.	.	.	8r	.
.	8ff 8dd\	.	.	.	.	8ff\	pra-
4r	8.ffL 8.dd\	.	.	.	.	8.ff\	-wie
.	16ddJk 16b-\	.	.	.	.	16dd\	u-
!	!	!	!	!	!	!LO:LB:g=original	!
=58	=58	=58	=58	=58	=58	=58	=58
4BB-/	8ffL 8dd\	.	.	2.ryy	2.ryy	8ff\	-sta-
.	8ddJ 8b-\	.	.	.	.	8dd\	-ie
4B-\	4r	.	.	.	.	4r	.
4r	4r	.	.	.	.	4r	.
!LO:LB:g=original	!LO:LB:g=original	!	!	!	!	!	!
=59	=59	=59	=59	=59	=59	=59	=59
!	!	!	!	!	!	!LO:N:vis=0	!
4F\	2.r	.	.	2.ryy	2.ryy	1.r	.
4r	.	.	.	.	.	.	.
4r	.	.	.	.	.	.	.
=60	=60	=60	=60	=60	=60	=60	=60
4F\	2.r	.	.	2.ryy	2.ryy	.	.
4F#X\	.	.	.	.	.	.	.
4G\	.	.	.	.	.	.	.
=61	=61	=61	=61	=61	=61	=61	=61
!	!	!LO:N:vis=00	!LO:N:vis=00	!	!	!	!
4E-\	2.r	0.r	0.r	2.ryy	2.ryy	2.r	.
4F\	.	.	.	.	.	.	.
4FF/	.	.	.	.	.	.	.
=62	=62	=62	=62	=62	=62	=62	=62
4BB-/	4r	.	.	2.ryy	2.ryy	4r	.
4B-\	8r	.	.	.	.	8r	.
.	8ff 8dd\	.	.	.	.	8ff\	Ży-
4r	8.ffL 8.dd\	.	.	.	.	8.ff\	-cie
.	16ddJk 16b-\	.	.	.	.	16dd\	w u-
=63	=63	=63	=63	=63	=63	=63	=63
4BB-/	8ffL 8dd\	.	.	2.ryy	2.ryy	8ff\	-cis-
.	8ddJ 8b-\	.	.	.	.	8dd\	-kach
4B-\	8r	.	.	.	.	8r	.
.	8ff 8dd\	.	.	.	.	8ff\	pra-
4r	8.ffL 8.dd\	.	.	.	.	8.ff\	-wie
.	16ddJk 16b-\	.	.	.	.	16dd\	u-
=64	=64	=64	=64	=64	=64	=64	=64
4BB-/	8ffL 8dd\	.	.	2.ryy	2.ryy	8ff\	-sta-
.	8ddJ 8b-\	.	.	.	.	8dd\	-ie
4B-\	4r	.	.	.	.	4r	.
4r	4r	.	.	.	.	4r	.
!	!	!	!	!	!	!LO:LB:g=original	!
=65	=65	=65	=65	=65	=65	=65	=65
!	!	!LO:N:vis=00	!LO:N:vis=00	!	!	!LO:N:vis=00	!
4F\	2.r	0.r	0.r	2.ryy	2.ryy	0.r	.
4r	.	.	.	.	.	.	.
4r	.	.	.	.	.	.	.
=66	=66	=66	=66	=66	=66	=66	=66
4F\	2.r	.	.	2.ryy	2.ryy	.	.
4F#X\	.	.	.	.	.	.	.
4G\	.	.	.	.	.	.	.
=67	=67	=67	=67	=67	=67	=67	=67
4E-\	2.r	.	.	2.ryy	2.ryy	.	.
4F\	.	.	.	.	.	.	.
4FF/	.	.	.	.	.	.	.
!LO:LB:g=original	!LO:LB:g=original	!	!	!	!	!	!
=68	=68	=68	=68	=68	=68	=68	=68
4BB-/	2.r	.	.	2.ryy	2.ryy	.	.
4D/	.	.	.	.	.	.	.
4En/	.	.	.	.	.	.	.
=69	=69	=69	=69	=69	=69	=69	=69
!	!	!	!	!	!	!LO:N:vis=1	!
4F;\	4ryy	0ryy	0ryy	0ryy	0ryy	4r;	.
!	!LO:TX:a:t=Finale	!	!	!	!	!	!
2ryy	8b-\L	.	.	.	.	(8b-\L	Ży-
.	8dd\J	.	.	.	.	8dd\J)	.
.	4.ff\	.	.	.	.	4.ff\	-cie
.	.	.	.	.	.	.	.
1ryy	.	.	.	.	.	.	.
.	8dd\	.	.	.	.	8dd\	w u-
.	4.ff\	.	.	.	.	4.ff\	-cis-
.	.	.	.	.	.	.	.
.	.	.	.	.	.	.	.
.	8dd\L	.	.	.	.	8dd\L	-kach
.	8ff\J	.	.	.	.	8ff\J	.
!	!	!	!	!	!	!LO:N:vis=4	!
.	4.ff;\	.	.	.	.	4.ff\	.
0ryy	.	.	.	.	.	.	.
.	4dd\	1ryy	1ryy	1ryy	1ryy	4dd;\	.
.	8ff\L	.	.	.	.	8ff\L	pra-
.	8ff#X\J	.	.	.	.	8ff#X\J	.
.	8gg\L	.	.	.	.	8gg\	-wie
.	8ee-\J	.	.	.	.	8ee-\	u-
.	2ddt\	.	.	.	.	2ddt\	-sta-
.	.	2ryy	2ryy	2ryy	2ryy	.	.
.	2ccT\	.	.	.	.	2ccT\	.
.	.	4ryy	4ryy	4ryy	4ryy	.	.
=70	=70	=70	=70	=70	=70	=70	=70
!LO:TUP:a:problem:klamra łukowa 	!	!LO:TX:t=P:problem:mixed beam	!LO:TX:t=P:problem:mixed beam	!	!	!	!
12B-\L	4b-\	8b-/L	8b-/L	1ryy	1ryy	4b-\	-ie.
12B-\	.	.	.	.	.	.	.
.	.	16bb-\L	16bb-\L	.	.	.	.
12B-\J	.	.	.	.	.	.	.
.	.	16aa\JJ	16aa\JJ	.	.	.	.
!LO:TUP:a:problem:klamra łukowa	!	!LO:TX:t=P:problem:mixed beam	!LO:TX:t=P:problem:mixed beam	!	!	!	!
12G\L	2r;	8bb-\L	8bb-\L	.	.	4r	.
12G\	.	.	.	.	.	.	.
.	.	8d/	8d/	.	.	.	.
12G\J	.	.	.	.	.	.	.
!LO:TUP:a:problem:klamra łukowa	!	!	!	!	!	!	!
12En\L	.	8e-/	8e-/	.	.	4r	.
12E\	.	.	.	.	.	.	.
.	.	8en/J	8en/J	.	.	.	.
12E\J	.	.	.	.	.	.	.
=-	=-	=	=	=	=	=-	=-
4F\	2ryy	2f;/	2f;/	.	.	2ryy	.
4FF/	.	.	.	4ryy	4ryy	.	.
!LO:TX:a:i:rj:t=al Segno	!	!	!	!	!	!	!
!LO:TX:a:rj:t=[segno]:problem:znak segno na kresce taktowej	!LO:TX:a:rj:t=[segno]:problem:znak segno na kresce taktowej	!LO:TX:a:rj:t=[segno]:problem:znak segno na kresce taktowej	!LO:TX:a:rj:t=[segno]:problem:znak segno na kresce taktowej	!	!	!	!
=71||	=71||	=71||	=71||	=71||	=71||	=71	=71
*>C	*>C	*>C	*>C	*>C	*>C	*>C	*>C
!	!	!	!	!	!	!LO:TX:a:t=20	!
!	!	!	!	!	!	!LO:N:vis=00	!
2.ryy	2.ryy	2.ryy	2.ryy	2.ryy	2.ryy	0.r	.
=72	=72	=72	=72	=72	=72	=72	=72
2.ryy	2.ryy	2.ryy	2.ryy	2.ryy	2.ryy	.	.
=73	=73	=73	=73	=73	=73	=73	=73
2.ryy	2.ryy	2.ryy	2.ryy	2.ryy	2.ryy	.	.
=74	=74	=74	=74	=74	=74	=74	=74
2.ryy	2.ryy	2.ryy	2.ryy	2.ryy	2.ryy	.	.
=75	=75	=75	=75	=75	=75	=75	=75
!	!	!	!	!	!	!LO:N:vis=00	!
2.ryy	2.ryy	2.ryy	2.ryy	2.ryy	2.ryy	0.r	.
=76	=76	=76	=76	=76	=76	=76	=76
2.ryy	2.ryy	2.ryy	2.ryy	2.ryy	2.ryy	.	.
=77	=77	=77	=77	=77	=77	=77	=77
2.ryy	2.ryy	2.ryy	2.ryy	2.ryy	2.ryy	.	.
=78	=78	=78	=78	=78	=78	=78	=78
2.ryy	2.ryy	2.ryy	2.ryy	2.ryy	2.ryy	.	.
=79	=79	=79	=79	=79	=79	=79	=79
!	!	!	!	!	!	!LO:N:vis=00	!
2.ryy	2.ryy	2.ryy	2.ryy	2.ryy	2.ryy	0.r	.
=80	=80	=80	=80	=80	=80	=80	=80
2.ryy	2.ryy	2.ryy	2.ryy	2.ryy	2.ryy	.	.
=81	=81	=81	=81	=81	=81	=81	=81
2.ryy	2.ryy	2.ryy	2.ryy	2.ryy	2.ryy	.	.
=82	=82	=82	=82	=82	=82	=82	=82
2.ryy	2.ryy	2.ryy	2.ryy	2.ryy	2.ryy	.	.
=83	=83	=83	=83	=83	=83	=83	=83
!	!	!	!	!	!	!LO:N:vis=00	!
2.ryy	2.ryy	2.ryy	2.ryy	2.ryy	2.ryy	0.r	.
=84	=84	=84	=84	=84	=84	=84	=84
2.ryy	2.ryy	2.ryy	2.ryy	2.ryy	2.ryy	.	.
=85	=85	=85	=85	=85	=85	=85	=85
2.ryy	2.ryy	2.ryy	2.ryy	2.ryy	2.ryy	.	.
=86	=86	=86	=86	=86	=86	=86	=86
2.ryy	2.ryy	2.ryy	2.ryy	2.ryy	2.ryy	.	.
=87	=87	=87	=87	=87	=87	=87	=87
!	!	!	!	!	!	!LO:N:vis=00	!
2.ryy	2.ryy	2.ryy	2.ryy	2.ryy	2.ryy	0.r	.
=88	=88	=88	=88	=88	=88	=88	=88
2.ryy	2.ryy	2.ryy	2.ryy	2.ryy	2.ryy	.	.
=89	=89	=89	=89	=89	=89	=89	=89
2.ryy	2.ryy	2.ryy	2.ryy	2.ryy	2.ryy	.	.
=90	=90	=90	=90	=90	=90	=90	=90
2.ryy	2.ryy	2.ryy	2.ryy	2.ryy	2.ryy	.	.
==	==	==	==	==	==	==	==
*-	*-	*-	*-	*-	*-	*-	*-
!!!system-decoration: [(g1)][(g2)]{(g3)}
!!!ENC: Katarzyna Serwa
!!!END: 2021-12-05
!!!ENC: Anastazja Marusiak
!!!END: 2021-12-01
